src/pos-icons/flag-remove.svg

<svg height="24" viewBox="0 0 24 24" width="24" xmlns="http://www.w3.org/2000/svg"><path d="m14.46 15.88 1.42-1.42 2.12 2.13 2.12-2.13 1.42 1.42-2.13 2.12 2.13 2.12-1.42 1.42-2.12-2.13-2.12 2.13-1.42-1.42 2.13-2.12zm-2.06-10.88h5.6v7c-2.22 0-4.16 1.21-5.2 3h-1.8l-.4-2h-5.6v7h-2v-17h9z"/></svg>

<?xml version="1.0" encoding="UTF-8"?><!DOCTYPE svg PUBLIC "-//W3C//DTD SVG 1.1//EN" "http://www.w3.org/Graphics/SVG/1.1/DTD/svg11.dtd"><svg xmlns="http://www.w3.org/2000/svg" xmlns:xlink="http://www.w3.org/1999/xlink" version="1.1" id="mdi-flag-remove" width="24" height="24" viewBox="0 0 24 24"><path d="M14.46,15.88L15.88,14.46L18,16.59L20.12,14.46L21.54,15.88L19.41,18L21.54,20.12L20.12,21.54L18,19.41L15.88,21.54L14.46,20.12L16.59,18L14.46,15.88M12.4,5H18V12C15.78,12 13.84,13.21 12.8,15H11L10.6,13H5V20H3V3H12L12.4,5Z" /></svg>
